X: 17
M: 4/4
L: 1/8
K: C
"C"E2 E>F "E/C7"G>c _B>G | "F"A2 F>E "F#/D7"F>d c>A |\
"G"B2 G>^F "B/G7"G>e d>B | "C"c>B c>d "G7"e>c G>F |
"C"E2 E>F "E/C7"G>c _B>G | "F"A2 F>E "F#/D7"F>d c>A |\
"G"B2 G>^F "B/G7"G>e d>B |1 "C"c>e "G7"d>B "C"c2 G>F :|2 "C"c>e "G7"d>B "C"c2 c>d |
|: "C"e2 e>c "E/C7"d>c B>c | "F"A>F F>E "F#/D7"F>d c>A |\
"G"B>G G>^F "B/G7"G>e d>B | "C"c>B c>d "G7"e>B c>d |
"C"e2 e>c "E/C7"d>c B>c | "F"A>F F>E "F#/D7"F>d c>A |\
"G"B>G G>^F "B/G7"G>e d>B |1 "C"c>e "G7"d>B "C"c2 c>d :|2 "C"c>e "G7"d>B "C"c2 c2 |]
tune for the John Drewry dance bearing the same name.


